X:18702
T:Whisky Before Breakfast
R:Reel
Z:added by Alf Warnock
M:4/4
L:1/8
Q:1/4=200
K:D
|:A,B,DE D2DE|F2AF BFAF|G2BG F2AF|EDEF EDB,D|
A,B,DE D3E|F2AF B2AF|G2BG F2AF|EDEF D2D2:|
|:FGAB cdef|gfed cBA2|e2ef e2ef|gfed cABc|
d2fd c2ec|BABc A2FD|G2BG F2AF|EDEF D2D2:|]


